X: 10991
T: Drunken Landlady, The
R: reel
M: 4/4
K: Edorian
|:Bd|eA A2 egfd|eA A2 edBd|dedB G3A|Bddg edBd|
eA A2 egfd|eA A2 edBd|d2 ef g3a|gedB A3:|
|:eaag a2 ga|b2 gb abge|dedB G3A|Bddg edBd|
eaag a2 ga|b2 gb abge|d2 ef g3a|gedB A2 A2:|

